X: 111
T: Mr. Gordon of Hallhead's Strathspey
T: dance: The Maine Medley [Daan Troost]
C: William Marshall
O: arr. Elke Baker
R: strathspey
Z: 2009 John Chambers <jc:trillian.mit.edu>
B: Celebrate Fifty Years of Dancing with the Boston Branch RSCDS (2000) p.11 #1
M: 4/4
L: 1/16
P: AAB
K: G
"A" |:\
"G"G3DB,3D GFED B,2D2 | GG,3BD3 "D7"FA3A3B |\
"G"G3DB,3D "Em"GFEF G2g2 | "D7"d3B cBAG "G"DG3G4 :|
"B"[|\
"G"gfga g4 "Em"gfga g4 | "C"efga gfed "D7"ea3a3f |\
"G"g3bgd3 "C"e2g2"G"d2B2 | "C"c2e2"D7"A2d2 "G"B2G2G2d2 |
"G"gfga g2z2 "Em"gfga g2z2 | "C"gaba gfed "D7"ea3 a2gf |\
"G"gb3"C"eg3 "G"d2g2B2G2 | "C"c3A "D7"cBAG "G"DG3G4 |]

%%sep 2 1 500
%%sep 1 1 500

